X:1
T:Ministry (Gower), 84.84.88
T:Ministry (Gower), 84.84.88
T:John Henry Gower, 1909
T:Public Domain Courtesy of the Cyber Hymnal™
C:John Henry Gower, 1909
Z:Public Domain
Z:Courtesy of the Cyber Hymnal™
%%score ( 1 2 ) ( 3 4 )
L:1/8
Q:1/4=103
M:4/4
K:Eb
V:1 treble 
V:2 treble 
V:3 bass 
V:4 bass 
V:1
 (EF) | [EG]2 B2 [EG]2 E2 | [EF]2 [DG]2 [CE]2 B2 | E4 F4 | [B,G]6 (G=A) | [DB]2 [Dd]2 [DB]2 G2 | %6
 [G^A]2 [^^FB]2 G2 (=AG) | [=DF]4 [Ec]4 | [DB]6 (cB) | E2 [DF]2 [EG]2 (cB) | E2 [DF]2 [EG]2 (cB) | %11
 [FA]2 (cB) [FA]2 (GF) | [EG]4 [DF]4 | E6 |] %14
V:2
 E2 | x2 (EF) x E2 x | x6 (ED) | (C2 C2) (C2 _C2) | x6 D2 | x6 G2 | x4 G2 _D2 | x8 | x6 D2 | %9
 E2 x2 D2 x2 | E2 x2 =E2 x2 | x2 =E2 x _E2 x | x8 | E6 |] %14
V:3
 (G,A,) | [E,B,]2 (CD) [E,E]2 [G,,B,]2 | [A,,C]2 (B,A,) [C,G,]2 [G,,E,]2 | [A,,E,]4 [A,,E,]4 | %4
 E,6 (B,C) | [G,B,]2 =A,2 [G,B,]2 [B,,D]2 | [C,E]2 (DC) [G,B,]2 [=E,B,]2 | (B,2 =A,2) (G,2 A,2) | %8
 [B,,B,]6 [_A,B,]2 | [G,B,]2 [F,B,]2 [E,B,]2 [A,B,]2 | [G,B,]2 [F,B,]2 [E,B,]2 [C,C]2 | %11
 [F,C]2 [G,C]2 [A,C]2 [=A,C]2 | B,4 [B,,_A,]4 | [E,G,]6 |] %14
V:4
 E,2 | x2 E,2 x4 | x2 B,,2 x4 | x8 | E,6 D,2 | x2 (G,^F,) x4 | x2 D,2 x4 | F,4 F,4 | x8 | x8 | x8 | %11
 x8 | B,4 x4 | x6 |] %14

